dist/svgs/unicons/line/pound-circle.svg

<svg xmlns="http://www.w3.org/2000/svg" viewBox="0 0 24 24"><path d="M16 15h-5.18a3 3 0 00.18-1v-1h2.5a1 1 0 000-2H11v-1a1.95 1.95 0 013.63-1 1 1 0 001.74-1A4 4 0 009 10v1H8a1 1 0 000 2h1v1a1 1 0 01-1 1 1 1 0 000 2h8a1 1 0 000-2zM12 1a11 11 0 1011 11A11 11 0 0012 1zm0 20a9 9 0 119-9 9 9 0 01-9 9z"/></svg>

<svg xmlns="http://www.w3.org/2000/svg" viewBox="0 0 24 24"><path d="M16,15H10.82A3,3,0,0,0,11,14V13h2.5a1,1,0,0,0,0-2H11V10a1.95,1.95,0,0,1,3.63-1,1,1,0,0,0,1.74-1A4,4,0,0,0,9,10V11H8a1,1,0,0,0,0,2H9v1a1,1,0,0,1-1,1,1,1,0,0,0,0,2h8a1,1,0,0,0,0-2ZM12,1A11,11,0,1,0,23,12,11,11,0,0,0,12,1Zm0,20a9,9,0,1,1,9-9A9,9,0,0,1,12,21Z"/></svg>
